X: 1
T: Money In Both Pockets
M: 4/4
L: 1/8
R: reel
K: Dmaj
|: d ~A3 dAFA | d ~A3 g2 fe | d ~A3 dAFA | G ~E3 GABc :|
d2 fd edcA | (3Bcd ef g2 fe | dcdg ed=cA | G ~E3 GABc |
d2 fd edcA | (3Bcd ef g2 fg | abaf gfed | (3Bcd ef g2 fe ||
